X: 3
T: The Nightingale
R: jig
M: 6/8
L: 1/8
K: Ador
G|EAA A2B|cAB cAG|~E3 ~G3|DB,D GFG|
EAA A2B|cAB cde|~g3 e/f/ge|dBG A2:|
a|aea aef|gdg gdg|~a3 aef|gfe def|
~g2e fed|edB GBd|~g3 e/f/ge|dBG A2:|


Tune 1868	Setting 1868

